X:235
T:The Typrid Lasses
B:Joyce, P. W.; "Old Irish Folk Music and Songs"
R:reel
L:1/8
M:C
K:G
g2 fg edBA|G2 AB AGED|G2 Bd eaag|fdef gfef|
g2 fg edBA|G2 BG AGED|G2 Bd eaag|fdef g2 g2:|
faeg dBde|fa a2 fa a2|gbeg dBdg|fdef g2 g2|
gbeg defg|fa a2 fa a2|c'bag agfe|fdef g2 g2:|
